!!!SOCIAL_FUNCTION:	songs of war
!!!PDT:	1918

Specific Region: Dakotas, Minnesota, Montana, Nebraska
!!!REG: Dakotas and Montana
!!!LING_GROUP: Siouan
!!!LANG: Tone
!!!OTL@ENG: Song of the Badger Society (b)
!!!ONM: No. 121
**kern
*Imale
*clefF4
*M2/4
*>[A,A]
*>norep[A]
*>A
=1!|:
*MM104
8.g
16g
16g
8.e
=2||
*M3/4
12g
12g
12g
8.g
16g
12e
12c
12c
=3
12e
12e
12c
8.c
16e
12A
12G
12G
=4||
*M2/4
12G
12G
12G
12G
12G
12G
=5
8E
8G
8.G
16A
=6
8G
16c
16B
8.c
16c
=7
12A
12G
12G
12A
12G
12G
=8
2E
=9
4.E
8E
=10
2E
==:|!
*-
!!!CNT: Native American -- Sioux
!!!MRD: 1911/07//-1914///
!!!OCL: Frances Densmore
!!!YOR1: Teton Sioux Music, Bulletin 61,
!!!YOR2: Bureau of American Ethnology, Smithsonian Institution
!!!PPR: Government Printing Office
!!!PPP: Washington, D.C.
!!!PDT: 1918///
!!!ENC: Craig Stuart Sapp
!!!END: 2002/03/25/
!!!EEV: 2002/03/31/
!!!AGN: War Song
!!!MPN@@SIO: Chetang'-hota
!!!MPN@ENG: Gray Hawk
!!!TXO: Teton Sioux
!!!MLC: Standing Rock Reservation, South Dakota, United States of America
!!!ARL: 45.9/-100.7#
!!!catalog: Catalogue No. 554
!!!PPG: 326
!!!EFL: 121/245
!!!VTS: 772947737
